packages/foundations/assets/icons/functional/images/file/paper_clip.svg

<svg xmlns="http://www.w3.org/2000/svg" width="32" height="32" fill="none"><path fill="#1A1C1F" fill-rule="evenodd" d="M21.227 3.412c-.576.124-1.132.362-1.707.732-.393.253-1.289 1.127-6.78 6.621-4.287 4.288-6.429 6.468-6.645 6.762a7.6 7.6 0 0 0-1.276 2.939c-.124.631-.124 1.85 0 2.482.576 2.939 2.818 5.159 5.721 5.665.591.103 1.742.103 2.333 0a7.3 7.3 0 0 0 2.971-1.261c.502-.365 3.021-2.851 8.103-7.995 3.555-3.599 3.394-3.401 3.231-3.962-.165-.569-.762-.87-1.289-.65-.125.052-2.024 1.902-5.612 5.467-2.984 2.964-5.544 5.475-5.691 5.581a6 6 0 0 1-.746.423c-2.496 1.194-5.432.141-6.637-2.38-.359-.75-.447-1.171-.447-2.129 0-.683.02-.901.116-1.254a6.1 6.1 0 0 1 .789-1.676c.327-.472 12.617-12.729 13.057-13.022.904-.603 2.232-.605 3.151-.004.6.392 1.035.944 1.261 1.599.099.288.122.47.122.943 0 .688-.115 1.099-.454 1.624-.24.371-11.75 11.88-11.989 11.987-.179.081-.542.087-.739.013a1.1 1.1 0 0 1-.53-.515c-.097-.227-.093-.611.009-.857.058-.139 1.553-1.671 5.009-5.132 5.495-5.501 5.136-5.091 4.965-5.677a.984.984 0 0 0-1.509-.538c-.11.074-2.422 2.372-5.138 5.108-4.486 4.52-4.952 5.006-5.105 5.321-.344.707-.415 1.363-.225 2.102.148.582.338.905.799 1.365.463.461.905.706 1.507.834a2.98 2.98 0 0 0 2.152-.398c.455-.294.656-.492 6.775-6.658 5.983-6.03 5.795-5.823 6.16-6.762.25-.644.331-1.101.328-1.843-.005-1.359-.491-2.537-1.436-3.486a5.06 5.06 0 0 0-2.498-1.371 5.7 5.7 0 0 0-2.106.002"/></svg>

<svg width="32" height="32" viewBox="0 0 32 32" fill="none" xmlns="http://www.w3.org/2000/svg"><path d="M21.227 3.412 C 20.651 3.536,20.095 3.774,19.520 4.144 C 19.127 4.397,18.231 5.271,12.740 10.765 C 8.453 15.053,6.311 17.233,6.095 17.527 C 5.486 18.356,5.024 19.419,4.819 20.466 C 4.695 21.097,4.695 22.316,4.819 22.948 C 5.395 25.887,7.637 28.107,10.540 28.613 C 11.131 28.716,12.282 28.716,12.873 28.613 C 13.915 28.431,14.988 27.976,15.844 27.352 C 16.346 26.987,18.865 24.501,23.947 19.357 C 27.502 15.758,27.341 15.956,27.178 15.395 C 27.013 14.826,26.416 14.525,25.889 14.745 C 25.764 14.797,23.865 16.647,20.277 20.212 C 17.293 23.176,14.733 25.687,14.586 25.793 C 14.440 25.900,14.104 26.090,13.840 26.216 C 11.344 27.410,8.408 26.357,7.203 23.836 C 6.844 23.086,6.756 22.665,6.756 21.707 C 6.756 21.024,6.776 20.806,6.872 20.453 C 7.014 19.930,7.337 19.244,7.661 18.777 C 7.988 18.305,20.278 6.048,20.718 5.755 C 21.622 5.152,22.950 5.150,23.869 5.751 C 24.469 6.143,24.904 6.695,25.130 7.350 C 25.229 7.638,25.252 7.820,25.252 8.293 C 25.252 8.981,25.137 9.392,24.798 9.917 C 24.558 10.288,13.048 21.797,12.809 21.904 C 12.630 21.985,12.267 21.991,12.070 21.917 C 11.866 21.839,11.629 21.609,11.540 21.402 C 11.443 21.175,11.447 20.791,11.549 20.545 C 11.607 20.406,13.102 18.874,16.558 15.413 C 22.053 9.912,21.694 10.322,21.523 9.736 C 21.334 9.085,20.584 8.818,20.014 9.198 C 19.904 9.272,17.592 11.570,14.876 14.306 C 10.390 18.826,9.924 19.312,9.771 19.627 C 9.427 20.334,9.356 20.990,9.546 21.729 C 9.694 22.311,9.884 22.634,10.345 23.094 C 10.808 23.555,11.250 23.800,11.852 23.928 C 12.562 24.079,13.393 23.925,14.004 23.530 C 14.459 23.236,14.660 23.038,20.779 16.872 C 26.762 10.842,26.574 11.049,26.939 10.110 C 27.189 9.466,27.270 9.009,27.267 8.267 C 27.262 6.908,26.776 5.730,25.831 4.781 C 25.145 4.093,24.259 3.607,23.333 3.410 C 22.713 3.279,21.843 3.279,21.227 3.412 " fill="#1A1C1F" stroke="none" fill-rule="evenodd"></path></svg>
